assets/svg/colored_check_circle.svg

<svg fill="none" height="94" viewBox="0 0 94 94" width="94" xmlns="http://www.w3.org/2000/svg" xmlns:xlink="http://www.w3.org/1999/xlink"><linearGradient id="a" gradientUnits="userSpaceOnUse" x1="47" x2="47" y1=".125" y2="93.875"><stop offset="0" stop-color="#e4002b"/><stop offset="1" stop-color="#7200a6"/></linearGradient><path d="m47 .125c-25.8433 0-46.875 21.0317-46.875 46.875s21.0317 46.875 46.875 46.875 46.875-21.0317 46.875-46.875-21.0317-46.875-46.875-46.875zm24.0933 33.4683-28.125 28.125c-.625.5938-1.4062.9063-2.2187.9063s-1.5938-.3125-2.2188-.9063l-12.5-12.5c-1.2187-1.2187-1.2187-3.2187 0-4.4375 1.2188-1.2187 3.2188-1.2187 4.4375 0l10.2817 10.3125 25.9067-25.9375c1.2187-1.2187 3.2187-1.2187 4.4375 0 1.2187 1.2188 1.2187 3.2188 0 4.4375z" fill="url(#a)"/></svg>

<svg width="94" height="94" viewBox="0 0 94 94" fill="none" xmlns="http://www.w3.org/2000/svg">
    <path
        d="M47 0.125C21.1567 0.125 0.125 21.1567 0.125 47C0.125 72.8433 21.1567 93.875 47 93.875C72.8433 93.875 93.875 72.8433 93.875 47C93.875 21.1567 72.8433 0.125 47 0.125ZM71.0933 33.5933L42.9683 61.7183C42.3433 62.3121 41.5621 62.6246 40.7496 62.6246C39.9371 62.6246 39.1558 62.3121 38.5308 61.7183L26.0308 49.2183C24.8121 47.9996 24.8121 45.9996 26.0308 44.7808C27.2496 43.5621 29.2496 43.5621 30.4683 44.7808L40.75 55.0933L66.6567 29.1558C67.8754 27.9371 69.8754 27.9371 71.0942 29.1558C72.3129 30.3746 72.3129 32.3746 71.0942 33.5933H71.0933Z"
        fill="url(#paint0_linear_529_992)" />
    <defs>
        <linearGradient id="paint0_linear_529_992" x1="47" y1="0.125" x2="47" y2="93.875"
            gradientUnits="userSpaceOnUse">
            <stop stop-color="#E4002B" />
            <stop offset="1" stop-color="#7200A6" />
        </linearGradient>
    </defs>
</svg>
